X:1
T:Title
%%score { ( 1 3 ) | ( 2 4 ) }
L:1/8
Q:1/4=120
M:4/4
K:A
V:1 treble nm="Church Organ"
V:3 treble 
V:2 bass 
V:4 bass 
V:1
 D4 | [EA]2 [DF]2 [Dd]2 A2 | B2 [Fd]2 c4 | [CA]4 [Dd]2 [B,DF]2 | [DA]2 [CE]2 [F,D]4 | %5
w: DEVICE=GENERAL.MDV|||||
[M:2/4] [DA]4 |[M:4/4] [Dd]2 [EB]2 [Ec]2 [CA]2 | [FB]2 [EB]2 [CA]4 | [DF]4 [EA]2 [Dd]2 | %9
w: ||||
 [DF]2 [CE]2[K:bass] [F,D]4 |] %10
w: |
V:2
 [D,F,]4 | [C,A,]2 [D,A,]2 [B,,B,]2 [D,F,D]2 | [=G,D]2 [D,A,]2 [A,E]4 | [A,,A,]4 [B,,F,]2 B,,2 | %4
 F,,=G,, z =G, D,4 |[M:2/4] [D,F,]4 |[M:4/4] [B,,F,]2 [E,G,]2 [C,G,]2 [F,A,]2 | %7
 [D,A,]2 [E,G,]2 [A,,A,]4 | [D,A,]4 [C,A,]2 F,=G, | A,,2 z =G, D,4 |] %10
V:3
 x4 | x8 | x8 | x8 | A,4 z4 |[M:2/4] x4 |[M:4/4] x8 | x8 | x8 | A,4[K:bass] z4 |] %10
V:4
 x4 | x8 | x8 | x8 | z2 A,,2 z4 |[M:2/4] x4 |[M:4/4] x8 | x8 | z4 z2 B,,2 | z2 A,,2 z4 |] %10

